X:1
T:Ved Graven
T:Ved Graven
T:F. A. Reissiger
C:F. A. Reissiger
%%score [ 1 2 3 4 ]
L:1/8
Q:1/4=70
M:3/4
K:Ab
V:1 treble-8 nm="Tenor I"
V:2 treble-8 nm="Tenor II"
V:3 bass nm="Bass I"
V:4 bass nm="Bass II"
V:1
"^Lento"!p! c4 c2 |[M:2/4]!<(! B A!<)! d c |[M:3/4]!>(! c4 B2!>)! |!<(! (B2 f2)!<)! e2 | %4
w: 1.Be- dre|kan jeg ik- ke|fa- re|end _ at|
w: 2.Be- dre|kan jeg ej for-|frem- mes|end _ at|
 e c A2 B2 |!>(! c4!>)! z2 |!p! c4 c2 |[M:2/4]!<(! B A!<)! d c |[M:3/4]!>(! c4 B2!>)! | %9
w: fa- re til min|Gud;|be- dre|kan jeg ik- ke|sva- re,|
w: dö en sa- lig|Död;|be- dre|kan jeg ik- ke|gjem- mes|
!mf! B4 (c=d) |!<(! (e2 c2) f2!<)! | e4 =d2 | e4 z2 |!p!!<(! B4 B2!<)! | e3!>(! (.e .d .c)!>)! | %15
w: naar jeg _|faar _ ved|Dö- den|Bud;|end at|jeg er straks be-|
w: end i _|Her- * rens|Haand og|Skjöd.|Ti Guds|Bo- lig ha- ver|
 B4 z2 |!<(! (c2 d2)!<)! e2 | f4 B2 |!>(! d4!>)! G2 | A4 z2 |] %20
w: red|og _ vil|gjer- ne|föl- ge|med.|
w: Fred|i _ al|O- ver-|flö- dig-|hed..|
V:2
!p! A4 A2 |[M:2/4]!<(! G A!<)! G A |[M:3/4]!>(! A4 G2!>)! |!<(! (G2 B2)!<)! B2 | A A A2 G2 | %5
w: 1.Be- dre|kan jeg ik- ke|fa- re|end _ at|fa- re til min|
w: 2.Be- dre|kan jeg ej for-|frem- mes|end _ at|dö en sa- lig|
!>(! G4!>)! z2 |!p! A4 A2 |[M:2/4]!<(! G A!<)! G A |[M:3/4]!>(! A4 G2!>)! |!mf! (F2 A2) A2 | %10
w: Gud;|be- dre|kan jeg ik- ke|sva- re,|naar _ jeg|
w: Död;|be- dre|kan jeg ik- ke|gjem- mes|end _ i|
!<(! (G2 A2) c2!<)! | B4 B2 | B4 z2 |!p!!<(! G4 G2!<)! | A3!>(! (.A .G .A)!>)! | G4 z2 | %16
w: faar _ ved|Dö- den|Bud;|end at|jeg er straks be-|red|
w: Her- * rens|Haand og|Skjöd.|Ti Guds|Bo- lig ha- ver|Fred|
!<(! A4!<)! A2 | A4 A2 |!>(! (A2 GF)!>)! E2 | E4 z2 |] %20
w: og vil|gjer- ne|föl- * * ge|med.|
w: i al|O- ver-|flö- * * dig-|hed..|
V:3
!p! E,4 E,2 |[M:2/4]!<(! E, E,!<)! E, E, |[M:3/4]!>(! E,4 E,2!>)! |!<(! (E,2 G,2)!<)! G,2 | %4
w: 1.Be- dre|kan jeg ik- ke|fa- re|end _ at|
w: 2.Be- dre|kan jeg ej for-|frem- mes|end _ at|
 A, E, F,2 F,2 |!>(! =E,4!>)! z2 |!p! _E,4 E,2 |[M:2/4]!<(! E, E,!<)! E, E, | %8
w: fa- re til min|Gud;|be- dre|kan jeg ik- ke|
w: dö en sa- lig|Död;|be- dre|kan jeg ik- ke|
[M:3/4]!>(! E,4 E,2!>)! |!mf! F,4 F,2 |!<(! E,4 A,2!<)! | G,4 F,2 | G,4 z2 |!p!!<(! E,4 E,2!<)! | %14
w: sva- re,|naar jeg|faar ved|Dö- den|Bud;|end at|
w: gjem- mes|end i|Her- rens|Haand og|Skjöd.|Ti Guds|
 E,3!>(! (.E, .E, .E,)!>)! | E,4 z2 |!<(! E,4!<)! _G,2 | F,4 F,2 |!>(! B,4!>)! (E,D,) | C,4 z2 |] %20
w: jeg er straks be-|red|og vil|gjer- ne|föl- ge _|med.|
w: Bo- lig ha- ver|Fred|i al|O- ver-|flö- dig- *|hed..|
V:4
!p! A,,4 A,,2 |[M:2/4]!<(! D, C,!<)! B,, A,, |[M:3/4]!>(! E,4 E,2!>)! |!<(! D,4!<)! D,2 | %4
w: 1.Be- dre|kan jeg ik- ke|fa- re|end at|
w: 2.Be- dre|kan jeg ej for-|frem- mes|end at|
 C, C, D,2 D,2 |!>(! C,4!>)! z2 |!p! A,,4 A,,2 |[M:2/4]!<(! D, C,!<)! B,, A,, | %8
w: fa- re til min|Gud;|be- dre|kan jeg ik- ke|
w: dö en sa- lig|Död;|be- dre|kan jeg ik- ke|
[M:3/4]!>(! E,4 E,2!>)! |!mf! =D,4 (C,=B,,) |!<(! (C,2 A,,2) A,,2!<)! | B,,4 B,,2 | E,4 z2 | %13
w: sva- re,|naar jeg _|faar _ ved|Dö- den|Bud;|
w: gjem- mes|end i _|Her- * rens|Haand og|Skjöd.|
!p!!<(! E,4 D,2!<)! | C,3!>(! (.C, .B,, .A,,)!>)! | E,2 D,2 B,,2 |!<(! A,,2 B,,2!<)! C,2 | %17
w: end at|jeg er straks be-|red og vil|gjer- ne, vil|
w: Ti Guds|Bo- lig ha- ver|Fred, ha- ver|Fred i al|
 D,4 D,2 |!>(! E,4!>)! E,2 | A,,4 z2 |] %20
w: gjer- ne|föl- ge|med.|
w: O- ver-|flö- dig-|hed..|

